img/icon-exchange.svg

<svg width="110" height="110" viewBox="0 0 110 110" fill="none" xmlns="http://www.w3.org/2000/svg">
<g filter="url(#filter0_d_587_2087)">
<path fill-rule="evenodd" clip-rule="evenodd" d="M15.4772 15.4772L15 15.9544V53.3347C15 87.9183 15.0206 90.7786 15.2748 91.5655C15.6196 92.6334 16.7251 93.8877 17.8395 94.4756L18.6735 94.9156L56.358 94.9577L94.0428 95L94.5213 94.5213C94.8748 94.168 95 93.8879 95 93.4507C95 92.7586 94.6455 91.995 94.2305 91.7926C94.0689 91.7139 77.32 91.614 56.6772 91.5688L19.4155 91.4871L18.9629 91.0348L18.5102 90.5822L18.4624 85.8513L18.4144 81.1202H19.4983C21.1585 81.1202 21.8571 80.5581 21.8571 79.2224C21.8571 78.8032 21.7272 78.5162 21.3799 78.1689C20.9365 77.7255 20.8152 77.6917 19.6656 77.6917H18.4286V74.1816V70.6715H19.5055C21.158 70.6715 21.8571 70.1073 21.8571 68.7738C21.8571 68.3546 21.7272 68.0675 21.3799 67.7203C20.9365 67.2769 20.8152 67.2431 19.6656 67.2431H18.4286V63.733V60.2229H19.5055C21.158 60.2229 21.8571 59.6587 21.8571 58.3252C21.8571 57.9059 21.7272 57.6189 21.3799 57.2717C20.9365 56.8283 20.8152 56.7945 19.6656 56.7945H18.4286V53.2844V49.7743H19.5055C21.158 49.7743 21.8571 49.2101 21.8571 47.8766C21.8571 47.4573 21.7272 47.1703 21.3799 46.8231C20.9365 46.3796 20.8152 46.3459 19.6656 46.3459H18.4286V42.8358V39.3257H19.5055C21.158 39.3257 21.8571 38.7615 21.8571 37.428C21.8571 37.0087 21.7272 36.7217 21.3799 36.3744C20.9365 35.931 20.8152 35.8972 19.6656 35.8972H18.4286V32.3872V28.8771H19.5055C21.158 28.8771 21.8571 28.3128 21.8571 26.9793C21.8571 26.5601 21.7272 26.2731 21.3799 25.9258C20.9365 25.4824 20.8152 25.4486 19.6656 25.4486H18.4286V21.9385V18.4285H19.5055C21.158 18.4285 21.8571 17.8642 21.8571 16.5307C21.8571 16.1115 21.7272 15.8245 21.3799 15.4772L20.9027 15H18.4286H15.9544L15.4772 15.4772ZM44.7527 15.2444C35.2211 16.9722 28.4522 25.4194 28.9228 34.9993C29.3744 44.1936 36.2232 51.7124 45.3642 53.049C47.3886 53.345 50.7853 53.167 52.7226 52.6637C59.6147 50.8729 64.8335 45.6295 66.6007 38.7198C68.4699 31.4113 65.6609 23.4394 59.6105 18.8818C57.0549 16.9568 54.3546 15.7774 51.2718 15.24C49.6033 14.9489 46.3704 14.9512 44.7527 15.2444ZM50.6113 18.6681C56.6488 19.7254 61.2882 23.8609 63.1112 29.8106C63.5167 31.1341 63.5505 31.4639 63.5505 34.1014C63.5505 36.7388 63.5167 37.0686 63.1112 38.3922C61.5322 43.545 57.7383 47.4474 52.792 49.0063C47.1415 50.787 41.1327 49.3084 36.9236 45.101C30.8686 39.0488 30.8686 29.1538 36.9238 23.1016C38.3252 21.7007 39.7066 20.7335 41.5112 19.8898C42.7264 19.3216 44.728 18.714 45.9388 18.5455C47.0833 18.3863 49.3402 18.4454 50.6113 18.6681ZM47.4082 22.0832C46.6183 22.4273 46.4356 22.7792 46.3469 24.1259L46.2653 25.367L43.3265 25.4504C41.7102 25.4963 40.2684 25.5924 40.1226 25.6641C39.6483 25.8969 39.2699 26.8099 39.3876 27.4371C39.5701 28.41 40.134 28.7804 41.5409 28.8514L42.7551 28.9128V34.1014V39.2899L41.5409 39.3513C40.134 39.4223 39.5701 39.7928 39.3876 40.7656C39.2699 41.3929 39.6483 42.3058 40.1226 42.5386C40.2684 42.6103 41.7102 42.7065 43.3265 42.7523L46.2653 42.8358L46.3469 44.0845C46.4382 45.4817 46.6758 45.8869 47.5771 46.1845C47.9964 46.3228 48.2413 46.3091 48.6895 46.1219C49.462 45.7991 49.7755 45.14 49.7755 43.8387V42.7847L51.3673 42.7287C52.6459 42.6836 53.1174 42.5946 53.7629 42.2769C56.5677 40.8966 57.5626 37.3912 55.898 34.7544L55.4857 34.1014L55.898 33.4483C57.2291 31.3398 56.8934 28.6056 55.0882 26.8512C54.0593 25.8512 52.9309 25.4486 51.1571 25.4486H49.7755V24.3793C49.7755 23.0737 49.4638 22.4045 48.7087 22.0889C48.0454 21.8118 48.031 21.8117 47.4082 22.0832ZM52.3894 29.1489C53.334 29.7069 53.5035 31.0517 52.7269 31.8283L52.2496 32.3055H49.2983H46.3469V30.5913V28.8771H49.1381C51.4491 28.8771 52.0083 28.9238 52.3894 29.1489ZM52.7269 36.3744C53.5035 37.1511 53.334 38.4958 52.3894 39.0539C52.0083 39.279 51.4491 39.3257 49.1381 39.3257H46.3469V37.6115V35.8972H49.2983H52.2496L52.7269 36.3744ZM69.7561 50.0861C69.1492 50.4561 68.8775 51.1457 68.8775 52.3156V53.1757L68.0576 53.3515C66.2083 53.7482 64.9626 54.7281 64.1997 56.3863C63.7989 57.2575 63.7416 57.5997 63.6808 59.4799L63.6124 61.5941L61.7687 64.3568L59.9249 67.1197L59.593 66.4691C58.9143 65.1387 57.2671 64.0042 55.6299 63.7394L55.0353 63.6432L54.9742 62.4331C54.9236 61.4314 54.8459 61.1515 54.5223 60.8072C53.9899 60.2406 53.137 60.0969 52.4625 60.4601C51.7755 60.8301 51.5714 61.3164 51.5714 62.5835V63.6226L50.8776 63.7369C48.7972 64.0794 47.3037 65.3114 46.5944 67.2699L46.2522 68.2151L44.5162 66.4638L42.7801 64.7126L42.7211 62.5902C42.6681 60.681 42.6191 60.3852 42.2335 59.645C41.7682 58.7518 40.5711 57.5484 39.8558 57.2545C39.6096 57.1533 39.0041 56.9847 38.5102 56.8795L37.6122 56.6885L37.5306 55.4518C37.4392 54.0679 37.1993 53.6609 36.3004 53.3641C35.8811 53.2258 35.6362 53.2395 35.1881 53.4267C34.4171 53.7489 34.102 54.4089 34.102 55.7024V56.7489L33.2968 56.8443C31.7053 57.0328 30.1708 58.1639 29.4131 59.7069L28.9592 60.6311V65.4472V70.2634L29.4131 71.1876C30.1708 72.7306 31.7053 73.8616 33.2968 74.0502L34.102 74.1455V75.192C34.102 76.4855 34.4171 77.1456 35.1881 77.4677C35.6362 77.655 35.8811 77.6687 36.3004 77.5304C37.1993 77.2336 37.4392 76.8266 37.5306 75.4426L37.6122 74.2059L38.5102 74.0213C39.6679 73.7831 40.5634 73.3048 41.3169 72.5221C41.9045 71.9117 42.7504 70.3431 42.7535 69.858C42.7544 69.7248 43.5562 70.4146 44.5355 71.3909L46.3159 73.1657L46.377 75.3062C46.4294 77.1417 46.4908 77.5467 46.8078 78.148C47.6473 79.7406 49.151 80.8411 50.7833 81.0576L51.5714 81.1623V82.3782C51.5714 83.5046 51.6067 83.6293 52.0487 84.0714C52.3959 84.4186 52.6829 84.5486 53.1022 84.5486C54.4302 84.5486 55 83.8481 55 82.2155V81.1572L55.7755 81.0426C56.7417 80.8999 58.3125 80.0807 58.8542 79.4371C59.079 79.1699 59.4562 78.5761 59.6922 78.1173C60.0738 77.376 60.1316 77.0372 60.2137 75.0627L60.3061 72.8417L62.102 70.1277C63.0898 68.6349 63.9412 67.4119 63.9941 67.4099C64.0472 67.408 64.174 67.5898 64.2762 67.8142C64.8535 69.0812 66.6681 70.3773 68.1825 70.6044L68.8775 70.7086V71.5933C68.8775 73.1945 69.5264 74.1 70.6735 74.1C71.8201 74.1 72.4694 73.1944 72.4694 71.5956V70.7133L73.1465 70.6051C75.0307 70.3037 76.7714 68.8612 77.3091 67.1553C77.4637 66.6648 77.6333 66.2635 77.6857 66.2635C77.7383 66.2635 78.5273 67.0166 79.439 67.9369L81.0968 69.6104L81.1575 71.6511C81.2312 74.1206 81.5458 74.9938 82.7762 76.1446C83.6436 76.9559 84.2629 77.2718 85.511 77.5395L86.3122 77.7113L86.3731 78.9157C86.4233 79.9115 86.5015 80.1919 86.8247 80.5358C87.3571 81.1025 88.21 81.2462 88.8844 80.8829C89.5714 80.513 89.7755 80.0266 89.7755 78.7596V77.7204L90.4694 77.6099C92.1992 77.3343 93.7682 76.192 94.5228 74.6588C94.9151 73.8616 94.9184 73.8148 94.9184 68.8757C94.9184 63.9967 94.9109 63.8821 94.544 63.1951C93.6896 61.5951 92.1936 60.5016 90.5636 60.2854L89.7755 60.1808V58.9648C89.7755 57.8385 89.7402 57.7138 89.2983 57.2717C88.951 56.9244 88.664 56.7945 88.2447 56.7945C86.9112 56.7945 86.3469 57.4935 86.3469 59.1461C86.3469 60.1818 86.3316 60.2229 85.9445 60.2229C85.3218 60.2229 84.0519 60.7036 83.2903 61.2275C82.343 61.8792 81.7223 62.8197 81.2126 64.3764C81.1246 64.6453 80.8537 64.4389 79.4204 63.0106L77.7321 61.328L77.6642 59.3469C77.6064 57.6566 77.5352 57.233 77.1796 56.4604C76.3905 54.7462 75.1427 53.749 73.2893 53.3515L72.4694 53.1757V52.2861C72.4694 51.1411 72.1342 50.3524 71.5107 50.03C70.8584 49.6927 70.3758 49.7082 69.7561 50.0861ZM73.6248 57.2717L74.102 57.7489V61.8883C74.102 66.4821 74.0829 66.5734 73.0247 67.0155C72.2842 67.3247 69.0627 67.3247 68.3223 67.0155C67.264 66.5734 67.2449 66.4821 67.2449 61.8883V57.7489L67.7221 57.2717L68.1993 56.7945H70.6735H73.1476L73.6248 57.2717ZM38.7927 60.7573L39.2449 61.2098V65.4472V69.6846L38.7927 70.1372C38.3481 70.5822 38.3022 70.5907 36.0731 70.6428C32.3339 70.73 32.3061 70.6919 32.3061 65.4768C32.3061 61.5298 32.3969 61.0186 33.1847 60.528C33.6376 60.2461 33.951 60.2162 36.0171 60.2577C38.3113 60.3039 38.3461 60.3103 38.7927 60.7573ZM90.5047 63.8834C91.5001 64.2993 91.5714 64.6393 91.5714 68.9648C91.5714 74.2156 91.6516 74.1 88.0082 74.1C84.5491 74.1 84.551 74.1029 84.551 68.8647C84.551 64.8311 84.6457 64.3771 85.583 63.9147C86.282 63.5701 89.7025 63.5482 90.5047 63.8834ZM55.9605 67.5094C56.6999 68.0272 56.7959 68.5981 56.7959 72.4783C56.7959 76.5386 56.7024 76.9766 55.7383 77.4342C55.0126 77.7786 51.6475 77.796 50.8423 77.4597C49.8469 77.0437 49.7755 76.7038 49.7755 72.3783C49.7755 68.2364 49.8493 67.8235 50.6604 67.43C50.8472 67.3392 52.0305 67.2602 53.2901 67.2542C55.1559 67.2452 55.6508 67.2924 55.9605 67.5094Z" fill="#06FF79"/>
</g>
<defs>
<filter id="filter0_d_587_2087" x="0" y="0" width="110" height="110" filterUnits="userSpaceOnUse" color-interpolation-filters="sRGB">
<feFlood flood-opacity="0" result="BackgroundImageFix"/>
<feColorMatrix in="SourceAlpha" type="matrix" values="0 0 0 0 0 0 0 0 0 0 0 0 0 0 0 0 0 0 127 0" result="hardAlpha"/>
<feOffset/>
<feGaussianBlur stdDeviation="7.5"/>
<feComposite in2="hardAlpha" operator="out"/>
<feColorMatrix type="matrix" values="0 0 0 0 0.0463889 0 0 0 0 0.695833 0 0 0 0 0.346333 0 0 0 0.8 0"/>
<feBlend mode="normal" in2="BackgroundImageFix" result="effect1_dropShadow_587_2087"/>
<feBlend mode="normal" in="SourceGraphic" in2="effect1_dropShadow_587_2087" result="shape"/>
</filter>
</defs>
</svg>

<svg width="110" height="110" fill="none" xmlns="http://www.w3.org/2000/svg"><g filter="url(#filter0_d_587_2087)"><path fill-rule="evenodd" clip-rule="evenodd" d="M15.477 15.477l-.477.477v37.38c0 34.584.02 37.445.275 38.231.345 1.068 1.45 2.323 2.565 2.91l.834.44 37.684.043L94.043 95l.478-.479c.354-.353.479-.633.479-1.07 0-.692-.355-1.456-.77-1.658-.161-.08-16.91-.179-37.553-.224l-37.261-.082-.453-.452-.453-.453-.048-4.73-.048-4.732h1.084c1.66 0 2.36-.562 2.36-1.898 0-.419-.13-.706-.478-1.053-.444-.444-.565-.477-1.714-.477h-1.237v-7.02h1.077c1.652 0 2.351-.565 2.351-1.898 0-.42-.13-.707-.477-1.054-.444-.443-.565-.477-1.714-.477h-1.237v-7.02h1.077c1.652 0 2.351-.564 2.351-1.898 0-.42-.13-.706-.477-1.053-.444-.444-.565-.477-1.714-.477h-1.237v-7.02h1.077c1.652 0 2.351-.565 2.351-1.898 0-.42-.13-.707-.477-1.054-.444-.443-.565-.477-1.714-.477h-1.237v-7.02h1.077c1.652 0 2.351-.565 2.351-1.898 0-.42-.13-.706-.477-1.054-.444-.443-.565-.477-1.714-.477h-1.237v-7.02h1.077c1.652 0 2.351-.564 2.351-1.898 0-.419-.13-.706-.477-1.053-.444-.444-.565-.477-1.714-.477h-1.237v-7.02h1.077c1.652 0 2.351-.565 2.351-1.898 0-.42-.13-.706-.477-1.054L20.903 15h-4.949l-.477.477zm29.276-.233C35.22 16.972 28.453 25.42 28.923 35c.451 9.195 7.3 16.713 16.441 18.05 2.025.296 5.421.118 7.359-.385 6.892-1.791 12.11-7.035 13.878-13.944 1.869-7.309-.94-15.28-6.99-19.838-2.556-1.925-5.256-3.105-8.34-3.642-1.668-.291-4.9-.289-6.518.004zm5.858 3.424c6.038 1.057 10.677 5.193 12.5 11.143.406 1.323.44 1.653.44 4.29 0 2.638-.034 2.968-.44 4.291-1.579 5.153-5.373 9.055-10.319 10.614-5.65 1.781-11.66.302-15.868-3.905-6.055-6.052-6.055-15.947 0-22 1.401-1.4 2.783-2.367 4.587-3.211 1.215-.568 3.217-1.176 4.428-1.345 1.144-.159 3.401-.1 4.672.123zm-3.203 3.415c-.79.344-.972.696-1.061 2.043l-.082 1.241-2.938.083c-1.617.046-3.059.142-3.204.214-.475.233-.853 1.146-.735 1.773.182.973.746 1.343 2.153 1.414l1.214.062V39.29l-1.214.061c-1.407.071-1.97.442-2.153 1.415-.118.627.26 1.54.735 1.773.145.071 1.587.167 3.204.213l2.938.084.082 1.248c.091 1.398.329 1.803 1.23 2.1.42.139.664.125 1.113-.062.772-.323 1.086-.982 1.086-2.283v-1.054l1.591-.056c1.279-.045 1.75-.134 2.396-.452 2.805-1.38 3.8-4.886 2.135-7.523l-.412-.653.412-.653c1.331-2.108.995-4.842-.81-6.597-1.029-1-2.157-1.402-3.93-1.402h-1.383v-1.07c0-1.305-.311-1.975-1.066-2.29-.664-.277-.678-.277-1.3-.006zm4.981 7.066c.945.558 1.114 1.903.338 2.68l-.477.477H46.347V28.877h2.791c2.311 0 2.87.047 3.251.272zm.338 7.225c.777.777.607 2.122-.338 2.68-.38.225-.94.272-3.25.272h-2.792V35.897H52.25l.477.477zm17.03 13.712c-.608.37-.88 1.06-.88 2.23v.86l-.82.175c-1.849.397-3.094 1.377-3.857 3.035-.401.871-.458 1.214-.52 3.094l-.068 2.114-1.843 2.763-1.844 2.763-.332-.65c-.679-1.331-2.326-2.466-3.963-2.73l-.595-.097-.06-1.21c-.051-1.002-.13-1.282-.453-1.626a1.723 1.723 0 00-2.06-.347c-.687.37-.89.856-.89 2.123v1.04l-.694.114c-2.08.342-3.574 1.574-4.284 3.533l-.342.945-1.736-1.751-1.736-1.751-.059-2.123c-.053-1.909-.102-2.205-.487-2.945-.466-.893-1.663-2.097-2.378-2.39-.246-.102-.852-.27-1.346-.376l-.898-.19-.081-1.237c-.092-1.384-.332-1.791-1.23-2.088-.42-.138-.665-.124-1.113.063-.77.322-1.086.982-1.086 2.275v1.047l-.805.095c-1.592.189-3.126 1.32-3.884 2.863l-.454.924v9.632l.454.925c.758 1.543 2.292 2.674 3.884 2.862l.805.096v1.046c0 1.294.315 1.954 1.086 2.276.448.187.693.2 1.112.062.9-.296 1.14-.703 1.23-2.087l.082-1.237.898-.185c1.158-.238 2.053-.716 2.807-1.499.587-.61 1.433-2.179 1.437-2.664 0-.133.802.557 1.782 1.533l1.78 1.775.061 2.14c.052 1.836.114 2.24.43 2.842.84 1.593 2.344 2.693 3.976 2.91l.788.104v1.216c0 1.127.036 1.251.478 1.693.347.348.634.478 1.053.478 1.328 0 1.898-.7 1.898-2.334v-1.058l.776-.114c.966-.143 2.536-.962 3.078-1.606.225-.267.602-.86.838-1.32.382-.741.44-1.08.522-3.054l.092-2.221 1.796-2.714c.988-1.493 1.84-2.716 1.892-2.718.053-.002.18.18.282.404.578 1.267 2.392 2.563 3.907 2.79l.694.105v.884c0 1.602.65 2.507 1.797 2.507 1.146 0 1.795-.906 1.795-2.504v-.883l.678-.108c1.884-.301 3.624-1.744 4.162-3.45.155-.49.324-.892.377-.892.052 0 .841.754 1.753 1.674l1.658 1.673.06 2.041c.074 2.47.389 3.343 1.62 4.494.867.81 1.486 1.127 2.734 1.395l.801.171.061 1.205c.05.996.128 1.276.452 1.62.532.567 1.385.71 2.06.347.686-.37.89-.856.89-2.123v-1.04l.694-.11c1.73-.276 3.3-1.418 4.054-2.951.392-.797.395-.844.395-5.783 0-4.88-.007-4.994-.374-5.68-.854-1.6-2.35-2.694-3.98-2.91l-.788-.105v-1.216c0-1.127-.036-1.251-.478-1.693-.347-.348-.634-.477-1.053-.477-1.334 0-1.898.698-1.898 2.351 0 1.036-.015 1.077-.402 1.077-.623 0-1.893.48-2.655 1.005-.947.651-1.568 1.592-2.077 3.148-.088.27-.36.063-1.793-1.365l-1.688-1.683-.068-1.981c-.058-1.69-.129-2.114-.484-2.887-.79-1.714-2.037-2.711-3.89-3.108l-.82-.176v-.89c0-1.145-.336-1.934-.96-2.256-.652-.337-1.134-.322-1.754.056zm3.868 7.186l.477.477v4.14c0 4.593-.02 4.684-1.077 5.127-.74.309-3.962.309-4.703 0-1.058-.443-1.077-.534-1.077-5.128v-4.14l.477-.476.477-.477h4.949l.477.477zm-34.832 3.485l.452.453V69.685l-.452.452c-.445.445-.49.454-2.72.506-3.74.087-3.767.049-3.767-5.166 0-3.947.09-4.458.879-4.949.453-.282.766-.312 2.832-.27 2.294.046 2.33.052 2.776.5zm51.712 3.126c.995.416 1.066.756 1.066 5.082 0 5.25.08 5.135-3.563 5.135-3.459 0-3.457.003-3.457-5.235 0-4.034.095-4.488 1.032-4.95.699-.345 4.12-.367 4.922-.032zM55.96 67.51c.739.518.835 1.09.835 4.97 0 4.06-.094 4.498-1.058 4.955-.725.345-4.09.362-4.896.026-.995-.416-1.066-.756-1.066-5.082 0-4.142.073-4.555.884-4.948.187-.09 1.37-.17 2.63-.176 1.866-.009 2.36.038 2.67.255z" fill="#06FF79"/></g><defs><filter id="filter0_d_587_2087" x="0" y="0" width="110" height="110" filterUnits="userSpaceOnUse" color-interpolation-filters="sRGB"><feFlood flood-opacity="0" result="BackgroundImageFix"/><feColorMatrix in="SourceAlpha" values="0 0 0 0 0 0 0 0 0 0 0 0 0 0 0 0 0 0 127 0" result="hardAlpha"/><feOffset/><feGaussianBlur stdDeviation="7.5"/><feComposite in2="hardAlpha" operator="out"/><feColorMatrix values="0 0 0 0 0.0463889 0 0 0 0 0.695833 0 0 0 0 0.346333 0 0 0 0.8 0"/><feBlend in2="BackgroundImageFix" result="effect1_dropShadow_587_2087"/><feBlend in="SourceGraphic" in2="effect1_dropShadow_587_2087" result="shape"/></filter></defs></svg>
